src/assets/images/Original-Graphics/5.svg

<svg xmlns="http://www.w3.org/2000/svg" xmlns:xlink="http://www.w3.org/1999/xlink" width="100" zoomAndPan="magnify" viewBox="0 0 75 74.999997" height="100" preserveAspectRatio="xMidYMid meet" version="1.0"><defs><clipPath id="e32de96c9c"><path d="M 14.769531 17.125 L 60.519531 17.125 L 60.519531 57.625 L 14.769531 57.625 Z M 14.769531 17.125 " clip-rule="nonzero"/></clipPath></defs><g clip-path="url(#e32de96c9c)"><path fill="#b13ed9" d="M 48.078125 30.691406 C 47.628906 30.691406 47.226562 30.824219 46.863281 31.085938 C 46.503906 31.351562 46.253906 31.695312 46.113281 32.121094 L 43.191406 32.121094 L 43.191406 32.058594 C 43.191406 31.417969 42.742188 30.914062 42.007812 30.742188 L 41.523438 30.632812 L 46.050781 30.632812 C 46.230469 30.632812 46.382812 30.570312 46.507812 30.445312 C 46.632812 30.320312 46.695312 30.167969 46.695312 29.988281 L 46.695312 28.5625 C 46.851562 28.511719 47 28.445312 47.136719 28.359375 C 47.277344 28.273438 47.402344 28.171875 47.519531 28.054688 C 47.636719 27.941406 47.734375 27.8125 47.820312 27.671875 C 47.90625 27.535156 47.972656 27.386719 48.023438 27.230469 C 48.074219 27.074219 48.105469 26.917969 48.117188 26.753906 C 48.128906 26.589844 48.125 26.429688 48.097656 26.265625 C 48.070312 26.105469 48.027344 25.949219 47.964844 25.796875 C 47.902344 25.648438 47.824219 25.507812 47.726562 25.375 C 47.628906 25.242188 47.519531 25.121094 47.394531 25.015625 C 47.273438 24.910156 47.136719 24.820312 46.992188 24.746094 C 46.84375 24.671875 46.691406 24.617188 46.535156 24.578125 C 46.375 24.539062 46.214844 24.523438 46.050781 24.523438 C 45.886719 24.523438 45.726562 24.539062 45.566406 24.578125 C 45.40625 24.617188 45.257812 24.671875 45.109375 24.746094 C 44.964844 24.824219 44.828125 24.914062 44.707031 25.019531 C 44.582031 25.125 44.472656 25.242188 44.375 25.375 C 44.277344 25.507812 44.199219 25.648438 44.136719 25.800781 C 44.074219 25.953125 44.03125 26.109375 44.003906 26.269531 C 43.980469 26.429688 43.972656 26.59375 43.988281 26.757812 C 44 26.917969 44.03125 27.078125 44.082031 27.234375 C 44.132812 27.390625 44.199219 27.535156 44.285156 27.675781 C 44.371094 27.816406 44.472656 27.941406 44.585938 28.058594 C 44.703125 28.175781 44.828125 28.273438 44.96875 28.359375 C 45.109375 28.445312 45.253906 28.511719 45.410156 28.5625 L 45.410156 29.347656 L 40.585938 29.347656 L 41.09375 28.539062 C 41.488281 27.914062 41.453125 27.222656 41.003906 26.769531 L 40.007812 25.777344 C 39.558594 25.328125 38.867188 25.289062 38.242188 25.6875 L 37.222656 26.328125 C 36.925781 26.175781 36.621094 26.050781 36.304688 25.945312 L 36.035156 24.773438 C 35.871094 24.054688 35.359375 23.585938 34.726562 23.585938 L 33.316406 23.585938 C 32.671875 23.585938 32.171875 24.039062 32 24.773438 L 31.734375 25.945312 C 31.417969 26.050781 31.113281 26.179688 30.816406 26.328125 L 29.796875 25.6875 C 29.171875 25.292969 28.476562 25.328125 28.027344 25.777344 L 27.035156 26.769531 C 26.582031 27.222656 26.546875 27.914062 26.941406 28.539062 L 27.585938 29.558594 C 27.433594 29.855469 27.308594 30.160156 27.199219 30.476562 L 26.03125 30.746094 C 25.296875 30.914062 24.84375 31.417969 24.84375 32.058594 L 24.84375 33.46875 C 24.84375 34.101562 25.308594 34.617188 26.03125 34.78125 L 27.199219 35.046875 C 27.304688 35.363281 27.433594 35.667969 27.582031 35.96875 L 26.945312 36.984375 C 26.546875 37.609375 26.582031 38.300781 27.03125 38.753906 L 28.027344 39.746094 C 28.476562 40.195312 29.171875 40.230469 29.796875 39.835938 L 30.816406 39.195312 C 31.113281 39.34375 31.421875 39.472656 31.734375 39.578125 L 32 40.753906 C 32.171875 41.484375 32.671875 41.9375 33.316406 41.9375 L 34.726562 41.9375 C 35.359375 41.9375 35.871094 41.472656 36.035156 40.753906 L 36.304688 39.578125 C 36.621094 39.472656 36.929688 39.34375 37.226562 39.195312 L 38.238281 39.835938 C 38.867188 40.230469 39.558594 40.195312 40.007812 39.746094 L 41.003906 38.753906 C 41.453125 38.300781 41.488281 37.609375 41.09375 36.984375 L 40.585938 36.179688 L 45.410156 36.179688 L 45.410156 36.960938 C 45.253906 37.011719 45.109375 37.078125 44.96875 37.164062 C 44.828125 37.25 44.703125 37.351562 44.585938 37.464844 C 44.472656 37.582031 44.371094 37.707031 44.285156 37.847656 C 44.199219 37.988281 44.132812 38.136719 44.082031 38.289062 C 44.03125 38.445312 44 38.605469 43.988281 38.769531 C 43.972656 38.929688 43.980469 39.09375 44.003906 39.253906 C 44.03125 39.414062 44.074219 39.570312 44.136719 39.722656 C 44.199219 39.875 44.28125 40.015625 44.375 40.148438 C 44.472656 40.28125 44.582031 40.398438 44.707031 40.503906 C 44.832031 40.613281 44.964844 40.703125 45.109375 40.777344 C 45.257812 40.851562 45.410156 40.90625 45.566406 40.945312 C 45.726562 40.984375 45.886719 41.003906 46.050781 41.003906 C 46.214844 41.003906 46.375 40.984375 46.535156 40.945312 C 46.695312 40.90625 46.847656 40.851562 46.992188 40.777344 C 47.136719 40.703125 47.273438 40.613281 47.398438 40.507812 C 47.519531 40.402344 47.632812 40.28125 47.726562 40.148438 C 47.824219 40.019531 47.902344 39.875 47.964844 39.726562 C 48.027344 39.574219 48.074219 39.417969 48.097656 39.257812 C 48.125 39.097656 48.128906 38.933594 48.117188 38.769531 C 48.105469 38.609375 48.074219 38.449219 48.023438 38.292969 C 47.972656 38.136719 47.90625 37.988281 47.820312 37.851562 C 47.734375 37.710938 47.636719 37.582031 47.519531 37.46875 C 47.40625 37.351562 47.277344 37.25 47.136719 37.164062 C 47 37.078125 46.851562 37.011719 46.695312 36.960938 L 46.695312 35.535156 C 46.695312 35.355469 46.632812 35.203125 46.507812 35.078125 C 46.382812 34.953125 46.230469 34.890625 46.050781 34.890625 L 41.523438 34.890625 L 42.007812 34.78125 C 42.730469 34.617188 43.195312 34.101562 43.195312 33.46875 L 43.195312 33.40625 L 46.113281 33.40625 C 46.191406 33.648438 46.3125 33.871094 46.476562 34.070312 C 46.636719 34.265625 46.828125 34.429688 47.050781 34.558594 C 47.273438 34.683594 47.507812 34.765625 47.761719 34.804688 C 48.015625 34.847656 48.265625 34.839844 48.515625 34.785156 C 48.765625 34.730469 48.996094 34.632812 49.210938 34.496094 C 49.425781 34.355469 49.605469 34.179688 49.757812 33.972656 C 49.90625 33.765625 50.015625 33.539062 50.078125 33.292969 C 50.144531 33.046875 50.164062 32.796875 50.136719 32.542969 C 50.109375 32.285156 50.039062 32.046875 49.921875 31.820312 C 49.804688 31.589844 49.652344 31.390625 49.460938 31.222656 C 49.273438 31.050781 49.058594 30.917969 48.820312 30.828125 C 48.582031 30.738281 48.332031 30.691406 48.078125 30.691406 Z M 45.269531 26.597656 C 45.269531 26.378906 45.347656 26.195312 45.5 26.042969 C 45.652344 25.890625 45.835938 25.8125 46.054688 25.8125 C 46.269531 25.8125 46.453125 25.886719 46.609375 26.042969 C 46.761719 26.195312 46.835938 26.378906 46.835938 26.59375 C 46.835938 26.8125 46.761719 26.996094 46.605469 27.148438 C 46.453125 27.300781 46.269531 27.378906 46.050781 27.378906 C 45.835938 27.378906 45.652344 27.300781 45.5 27.148438 C 45.347656 26.996094 45.269531 26.8125 45.269531 26.597656 Z M 46.050781 38.144531 C 46.269531 38.144531 46.453125 38.222656 46.605469 38.375 C 46.757812 38.527344 46.835938 38.710938 46.835938 38.925781 C 46.835938 39.144531 46.761719 39.328125 46.609375 39.480469 C 46.457031 39.636719 46.269531 39.710938 46.054688 39.710938 C 45.839844 39.710938 45.652344 39.636719 45.5 39.484375 C 45.347656 39.332031 45.269531 39.144531 45.269531 38.929688 C 45.269531 38.714844 45.347656 38.53125 45.5 38.375 C 45.652344 38.222656 45.835938 38.148438 46.050781 38.144531 Z M 41.910156 33.449219 C 41.851562 33.488281 41.789062 33.511719 41.71875 33.523438 L 40.183594 33.875 C 39.933594 33.933594 39.773438 34.085938 39.707031 34.332031 C 39.578125 34.804688 39.390625 35.25 39.152344 35.675781 C 39.027344 35.898438 39.03125 36.117188 39.164062 36.335938 L 40.003906 37.671875 C 40.042969 37.726562 40.070312 37.789062 40.082031 37.855469 L 39.113281 38.824219 C 39.042969 38.8125 38.984375 38.789062 38.925781 38.75 L 37.59375 37.910156 C 37.378906 37.769531 37.15625 37.765625 36.933594 37.894531 C 36.507812 38.136719 36.058594 38.324219 35.585938 38.453125 C 35.339844 38.519531 35.1875 38.679688 35.132812 38.929688 L 34.78125 40.464844 C 34.769531 40.535156 34.746094 40.59375 34.703125 40.652344 L 33.332031 40.652344 C 33.296875 40.59375 33.269531 40.53125 33.253906 40.464844 L 32.910156 38.929688 C 32.851562 38.679688 32.695312 38.519531 32.449219 38.449219 C 31.976562 38.320312 31.53125 38.132812 31.105469 37.894531 C 30.882812 37.765625 30.660156 37.769531 30.445312 37.910156 L 29.109375 38.75 C 29.054688 38.789062 28.996094 38.8125 28.929688 38.824219 L 27.957031 37.855469 C 27.96875 37.789062 27.992188 37.726562 28.03125 37.671875 L 28.871094 36.335938 C 29.007812 36.121094 29.015625 35.902344 28.890625 35.675781 C 28.648438 35.253906 28.460938 34.804688 28.332031 34.332031 C 28.265625 34.082031 28.105469 33.929688 27.855469 33.875 L 26.320312 33.523438 C 26.25 33.511719 26.1875 33.484375 26.128906 33.445312 L 26.128906 32.078125 C 26.1875 32.039062 26.25 32.011719 26.320312 32 L 27.855469 31.648438 C 28.105469 31.59375 28.265625 31.441406 28.332031 31.191406 C 28.460938 30.722656 28.648438 30.273438 28.890625 29.847656 C 29.015625 29.625 29.007812 29.402344 28.871094 29.1875 L 28.03125 27.851562 C 27.992188 27.796875 27.96875 27.734375 27.960938 27.667969 L 28.929688 26.699219 C 28.996094 26.710938 29.054688 26.738281 29.109375 26.777344 L 30.445312 27.613281 C 30.664062 27.75 30.882812 27.753906 31.105469 27.628906 C 31.53125 27.386719 31.976562 27.203125 32.449219 27.074219 C 32.695312 27.003906 32.851562 26.84375 32.910156 26.597656 L 33.253906 25.0625 C 33.269531 24.992188 33.296875 24.929688 33.335938 24.875 L 34.703125 24.875 C 34.746094 24.929688 34.769531 24.992188 34.78125 25.0625 L 35.132812 26.597656 C 35.1875 26.847656 35.34375 27.007812 35.589844 27.074219 C 36.0625 27.203125 36.507812 27.386719 36.933594 27.628906 C 37.15625 27.753906 37.375 27.75 37.589844 27.613281 L 38.925781 26.777344 C 38.984375 26.738281 39.046875 26.710938 39.113281 26.699219 L 40.082031 27.667969 C 40.070312 27.734375 40.042969 27.796875 40.003906 27.851562 L 39.164062 29.1875 C 39.03125 29.40625 39.027344 29.628906 39.152344 29.851562 C 39.394531 30.277344 39.582031 30.722656 39.710938 31.195312 C 39.777344 31.441406 39.9375 31.59375 40.183594 31.652344 L 41.71875 31.996094 C 41.785156 32.011719 41.851562 32.039062 41.90625 32.078125 Z M 48.078125 33.546875 C 47.863281 33.542969 47.675781 33.46875 47.523438 33.3125 C 47.375 33.160156 47.296875 32.976562 47.296875 32.757812 C 47.300781 32.542969 47.375 32.359375 47.53125 32.207031 C 47.683594 32.054688 47.867188 31.980469 48.082031 31.980469 C 48.300781 31.980469 48.484375 32.058594 48.636719 32.210938 C 48.789062 32.363281 48.863281 32.546875 48.863281 32.765625 C 48.863281 32.980469 48.785156 33.164062 48.632812 33.316406 C 48.480469 33.46875 48.292969 33.546875 48.078125 33.546875 Z M 34.019531 28.617188 C 33.75 28.617188 33.480469 28.644531 33.210938 28.695312 C 32.945312 28.75 32.6875 28.828125 32.433594 28.933594 C 32.183594 29.035156 31.945312 29.164062 31.71875 29.316406 C 31.492188 29.464844 31.28125 29.636719 31.089844 29.828125 C 30.898438 30.023438 30.726562 30.230469 30.574219 30.457031 C 30.421875 30.683594 30.292969 30.921875 30.191406 31.175781 C 30.085938 31.425781 30.007812 31.683594 29.953125 31.953125 C 29.902344 32.21875 29.875 32.488281 29.875 32.761719 C 29.875 33.03125 29.902344 33.300781 29.953125 33.570312 C 30.007812 33.835938 30.085938 34.097656 30.1875 34.347656 C 30.292969 34.597656 30.421875 34.835938 30.570312 35.0625 C 30.722656 35.289062 30.894531 35.5 31.085938 35.691406 C 31.28125 35.886719 31.488281 36.058594 31.714844 36.207031 C 31.941406 36.359375 32.179688 36.488281 32.433594 36.589844 C 32.683594 36.695312 32.941406 36.773438 33.210938 36.828125 C 33.476562 36.878906 33.746094 36.90625 34.019531 36.90625 C 34.289062 36.90625 34.558594 36.882812 34.828125 36.828125 C 35.09375 36.773438 35.351562 36.695312 35.605469 36.59375 C 35.855469 36.488281 36.09375 36.359375 36.320312 36.210938 C 36.546875 36.058594 36.757812 35.886719 36.949219 35.695312 C 37.140625 35.5 37.316406 35.292969 37.464844 35.066406 C 37.617188 34.839844 37.746094 34.601562 37.847656 34.351562 C 37.953125 34.097656 38.03125 33.839844 38.085938 33.570312 C 38.136719 33.304688 38.164062 33.035156 38.164062 32.761719 C 38.164062 32.492188 38.136719 32.222656 38.085938 31.957031 C 38.03125 31.6875 37.953125 31.429688 37.847656 31.179688 C 37.742188 30.925781 37.617188 30.6875 37.464844 30.460938 C 37.3125 30.234375 37.140625 30.027344 36.949219 29.832031 C 36.757812 29.640625 36.546875 29.46875 36.320312 29.316406 C 36.097656 29.167969 35.855469 29.039062 35.605469 28.933594 C 35.355469 28.832031 35.097656 28.75 34.828125 28.699219 C 34.5625 28.644531 34.292969 28.617188 34.019531 28.617188 Z M 34.019531 35.621094 C 33.640625 35.621094 33.277344 35.546875 32.925781 35.402344 C 32.574219 35.257812 32.265625 35.054688 32 34.785156 C 31.730469 34.515625 31.523438 34.207031 31.378906 33.859375 C 31.230469 33.507812 31.160156 33.144531 31.160156 32.765625 C 31.160156 32.386719 31.230469 32.019531 31.375 31.667969 C 31.519531 31.320312 31.726562 31.011719 31.996094 30.742188 C 32.261719 30.472656 32.574219 30.265625 32.921875 30.121094 C 33.273438 29.976562 33.636719 29.902344 34.015625 29.902344 C 34.394531 29.902344 34.761719 29.976562 35.109375 30.121094 C 35.460938 30.265625 35.769531 30.472656 36.039062 30.742188 C 36.304688 31.007812 36.511719 31.320312 36.65625 31.667969 C 36.804688 32.019531 36.875 32.382812 36.875 32.761719 C 36.875 33.140625 36.800781 33.503906 36.65625 33.855469 C 36.511719 34.203125 36.304688 34.511719 36.039062 34.78125 C 35.769531 35.046875 35.460938 35.253906 35.113281 35.398438 C 34.761719 35.546875 34.398438 35.617188 34.019531 35.621094 Z M 56.855469 17.121094 L 18.140625 17.121094 C 17.695312 17.121094 17.269531 17.207031 16.859375 17.378906 C 16.445312 17.546875 16.082031 17.789062 15.769531 18.105469 C 15.453125 18.417969 15.210938 18.78125 15.042969 19.191406 C 14.871094 19.601562 14.785156 20.03125 14.785156 20.472656 L 14.785156 45.050781 C 14.785156 45.496094 14.871094 45.921875 15.039062 46.332031 C 15.210938 46.742188 15.453125 47.105469 15.769531 47.421875 C 16.082031 47.734375 16.445312 47.976562 16.855469 48.148438 C 17.269531 48.316406 17.695312 48.402344 18.140625 48.40625 L 31.363281 48.40625 C 31.199219 49.476562 30.871094 50.5 30.378906 51.464844 L 26.949219 51.464844 C 25.308594 51.464844 23.773438 52.023438 22.628906 53.027344 C 22.023438 53.554688 21.554688 54.183594 21.222656 54.917969 C 20.894531 55.652344 20.734375 56.421875 20.742188 57.222656 C 20.738281 57.402344 20.800781 57.554688 20.925781 57.679688 C 21.050781 57.804688 21.203125 57.867188 21.382812 57.867188 L 21.386719 57.867188 C 34.296875 57.855469 45.132812 57.855469 53.609375 57.863281 C 53.789062 57.863281 53.941406 57.800781 54.066406 57.671875 C 54.191406 57.546875 54.253906 57.394531 54.253906 57.21875 C 54.261719 56.414062 54.101562 55.648438 53.769531 54.914062 C 53.441406 54.183594 52.972656 53.550781 52.363281 53.023438 C 51.21875 52.019531 49.683594 51.464844 48.046875 51.464844 L 44.617188 51.464844 C 44.125 50.5 43.792969 49.476562 43.628906 48.402344 L 56.855469 48.402344 C 57.300781 48.402344 57.726562 48.316406 58.136719 48.148438 C 58.550781 47.976562 58.910156 47.734375 59.226562 47.421875 C 59.539062 47.105469 59.78125 46.742188 59.953125 46.332031 C 60.125 45.921875 60.210938 45.496094 60.210938 45.050781 L 60.210938 20.472656 C 60.210938 20.03125 60.125 19.601562 59.953125 19.191406 C 59.78125 18.78125 59.539062 18.417969 59.226562 18.105469 C 58.910156 17.789062 58.550781 17.546875 58.136719 17.378906 C 57.726562 17.207031 57.300781 17.121094 56.855469 17.121094 Z M 48.046875 52.753906 C 50.25 52.753906 52.578125 54.085938 52.921875 56.574219 C 44.707031 56.566406 34.335938 56.570312 22.074219 56.582031 C 22.398438 54.355469 24.386719 52.753906 26.949219 52.753906 Z M 31.800781 51.46875 C 32.238281 50.488281 32.523438 49.464844 32.667969 48.40625 L 42.328125 48.40625 C 42.46875 49.464844 42.757812 50.488281 43.191406 51.46875 Z M 58.921875 45.050781 C 58.921875 45.324219 58.867188 45.585938 58.761719 45.839844 C 58.660156 46.09375 58.507812 46.316406 58.316406 46.511719 C 58.121094 46.703125 57.898438 46.851562 57.644531 46.957031 C 57.394531 47.0625 57.128906 47.117188 56.855469 47.117188 L 18.140625 47.117188 C 17.867188 47.117188 17.601562 47.0625 17.351562 46.960938 C 17.097656 46.855469 16.875 46.703125 16.679688 46.511719 C 16.484375 46.316406 16.335938 46.09375 16.230469 45.839844 C 16.125 45.585938 16.074219 45.324219 16.074219 45.050781 L 16.074219 20.472656 C 16.074219 20.199219 16.125 19.9375 16.230469 19.683594 C 16.335938 19.429688 16.484375 19.207031 16.679688 19.015625 C 16.875 18.820312 17.097656 18.671875 17.351562 18.566406 C 17.601562 18.460938 17.867188 18.410156 18.140625 18.410156 L 56.855469 18.410156 C 57.128906 18.410156 57.394531 18.460938 57.644531 18.566406 C 57.898438 18.671875 58.121094 18.820312 58.316406 19.015625 C 58.507812 19.207031 58.65625 19.429688 58.761719 19.683594 C 58.867188 19.9375 58.921875 20.199219 58.921875 20.472656 Z M 52.304688 21.492188 L 22.695312 21.492188 C 22.355469 21.492188 22.027344 21.558594 21.710938 21.6875 C 21.398438 21.820312 21.121094 22.003906 20.878906 22.246094 C 20.640625 22.484375 20.453125 22.761719 20.324219 23.078125 C 20.191406 23.390625 20.125 23.71875 20.125 24.058594 L 20.125 41.464844 C 20.128906 41.804688 20.191406 42.132812 20.324219 42.449219 C 20.453125 42.761719 20.640625 43.039062 20.878906 43.277344 C 21.121094 43.519531 21.398438 43.703125 21.710938 43.835938 C 22.027344 43.964844 22.351562 44.03125 22.695312 44.03125 L 52.304688 44.03125 C 52.644531 44.03125 52.972656 43.964844 53.285156 43.832031 C 53.597656 43.703125 53.875 43.519531 54.117188 43.277344 C 54.355469 43.039062 54.542969 42.761719 54.671875 42.445312 C 54.800781 42.132812 54.867188 41.804688 54.867188 41.464844 L 54.867188 24.058594 C 54.867188 23.71875 54.800781 23.390625 54.671875 23.078125 C 54.542969 22.761719 54.355469 22.488281 54.117188 22.246094 C 53.875 22.003906 53.597656 21.820312 53.285156 21.691406 C 52.972656 21.558594 52.644531 21.492188 52.304688 21.492188 Z M 53.582031 41.464844 C 53.582031 41.636719 53.550781 41.796875 53.484375 41.953125 C 53.417969 42.109375 53.328125 42.25 53.207031 42.367188 C 53.085938 42.488281 52.949219 42.582031 52.792969 42.644531 C 52.636719 42.710938 52.472656 42.742188 52.304688 42.742188 L 22.695312 42.742188 C 22.523438 42.742188 22.363281 42.710938 22.207031 42.644531 C 22.050781 42.582031 21.910156 42.488281 21.789062 42.371094 C 21.671875 42.25 21.578125 42.113281 21.515625 41.953125 C 21.449219 41.796875 21.417969 41.636719 21.417969 41.464844 L 21.417969 24.058594 C 21.417969 23.890625 21.449219 23.726562 21.515625 23.570312 C 21.578125 23.414062 21.671875 23.273438 21.789062 23.15625 C 21.910156 23.035156 22.046875 22.941406 22.203125 22.878906 C 22.363281 22.8125 22.523438 22.78125 22.695312 22.78125 L 52.304688 22.78125 C 52.472656 22.78125 52.636719 22.8125 52.792969 22.878906 C 52.949219 22.945312 53.089844 23.035156 53.207031 23.15625 C 53.328125 23.273438 53.417969 23.414062 53.484375 23.570312 C 53.550781 23.726562 53.582031 23.890625 53.582031 24.058594 Z M 53.582031 41.464844 " fill-opacity="1" fill-rule="nonzero"/></g></svg>

<svg xmlns="http://www.w3.org/2000/svg" width="100" height="100" viewBox="0 0 75 75"><defs><clipPath id="a"><path d="M14.77 17.13h45.75v40.5H14.77Zm0 0"/></clipPath></defs><g clip-path="url(#a)"><path fill="currentColor" d="M48.08 30.7q-.67 0-1.22.39-.53.39-.75 1.03H43.2v-.06c0-.64-.45-1.15-1.18-1.32l-.49-.1h4.53q.27 0 .46-.2a.6.6 0 0 0 .19-.45v-1.43a2 2 0 0 0 .82-.5q.17-.18.3-.39a2 2 0 0 0 .3-.92 2 2 0 0 0-.73-1.73 2 2 0 0 0-1.34-.5 2 2 0 0 0-1.67.86 2 2 0 0 0-.38.89 2 2 0 0 0 .08.96 2 2 0 0 0 1.33 1.33v.79H40.6l.5-.81c.4-.63.36-1.32-.09-1.77l-1-1c-.44-.44-1.13-.48-1.76-.08l-1.02.64a7 7 0 0 0-.92-.38l-.26-1.18c-.17-.72-.68-1.18-1.31-1.18h-1.41c-.65 0-1.15.45-1.32 1.18l-.27 1.18a7 7 0 0 0-.91.38l-1.02-.64c-.63-.4-1.32-.36-1.77.09l-1 .99c-.45.45-.48 1.14-.09 1.77l.65 1.02q-.23.45-.4.92l-1.16.27c-.73.16-1.19.67-1.19 1.3v1.42c0 .63.47 1.15 1.2 1.31l1.16.27q.15.47.38.92l-.63 1.01c-.4.63-.37 1.32.08 1.77l1 1c.45.45 1.14.48 1.77.09l1.02-.64q.45.21.91.38l.27 1.17c.17.73.67 1.19 1.32 1.19h1.4c.64 0 1.15-.47 1.32-1.19l.26-1.17q.48-.16.93-.38l1 .64c.64.39 1.33.36 1.78-.1l1-.99c.44-.45.48-1.14.08-1.77l-.5-.8h4.82v.78A2.05 2.05 0 0 0 44 38.77a2 2 0 0 0 .72 1.73 2 2 0 0 0 1.34.5 2 2 0 0 0 .94-.22 2 2 0 0 0 .74-.63 2 2 0 0 0 .37-.9 2 2 0 0 0-.28-1.4 2 2 0 0 0-.3-.38 2 2 0 0 0-.82-.5v-1.43a.6.6 0 0 0-.2-.46.6.6 0 0 0-.45-.19h-4.53l.49-.1c.72-.17 1.19-.69 1.19-1.32v-.06h2.91a2 2 0 0 0 .94 1.15 2.08 2.08 0 0 0 3.09-2.02 2 2 0 0 0-.68-1.32q-.28-.25-.64-.4a2 2 0 0 0-.74-.13m-2.81-4.1q0-.32.23-.56a.8.8 0 0 1 .55-.23q.32 0 .56.23.23.24.23.55t-.23.56a.8.8 0 0 1-.56.23.8.8 0 0 1-.55-.23.8.8 0 0 1-.23-.55m.78 11.54q.32 0 .56.23.23.23.23.56 0 .32-.23.55a.8.8 0 0 1-.56.23.8.8 0 0 1-.55-.23.8.8 0 0 1-.23-.55q0-.33.23-.55a.8.8 0 0 1 .55-.24m-4.14-4.7-.2.08-1.53.35a.6.6 0 0 0-.47.46q-.2.7-.56 1.35a.6.6 0 0 0 .01.66l.84 1.33q.06.09.08.19l-.97.96-.18-.07-1.34-.84a.6.6 0 0 0-.66-.02 6 6 0 0 1-1.34.56.6.6 0 0 0-.46.48l-.35 1.53a.4.4 0 0 1-.08.2h-1.37l-.08-.2-.34-1.53a.6.6 0 0 0-.46-.48 6 6 0 0 1-1.34-.56.6.6 0 0 0-.66.02l-1.34.84a.4.4 0 0 1-.18.07l-.97-.96.07-.19.84-1.33a.6.6 0 0 0 .02-.66 6 6 0 0 1-.56-1.35.6.6 0 0 0-.47-.45l-1.54-.36-.2-.07v-1.37l.2-.08 1.54-.35a.6.6 0 0 0 .47-.46q.2-.7.56-1.34a.6.6 0 0 0-.02-.66l-.84-1.34a.4.4 0 0 1-.07-.18l.97-.97q.1.02.18.08l1.34.83a.6.6 0 0 0 .66.02q.63-.36 1.34-.56.37-.1.46-.47l.34-1.54.09-.18h1.36a.4.4 0 0 1 .08.18l.35 1.54a.6.6 0 0 0 .46.47q.7.2 1.34.56a.6.6 0 0 0 .66-.02l1.34-.83.18-.08.97.97-.08.18-.84 1.34a.6.6 0 0 0 0 .66q.35.64.55 1.35.1.37.47.45l1.54.35q.1.02.19.08Zm6.17.1a.8.8 0 0 1-.56-.23.8.8 0 0 1-.22-.55q0-.33.23-.55a.8.8 0 0 1 .55-.23q.32 0 .56.23.22.23.22.56 0 .32-.23.55a.8.8 0 0 1-.55.23m-14.06-4.92a4 4 0 0 0-1.59.31 4 4 0 0 0-1.34.9 4 4 0 0 0-.9 1.35 4 4 0 0 0 .38 3.88 4.2 4.2 0 0 0 2.64 1.77 4.3 4.3 0 0 0 2.4-.24 5 5 0 0 0 1.34-.9 4.17 4.17 0 0 0 0-5.86 4.2 4.2 0 0 0-2.93-1.21m0 7a2.85 2.85 0 0 1-2.86-2.85 2.86 2.86 0 1 1 2.86 2.85m22.84-18.5H18.14a3.3 3.3 0 0 0-2.37.99q-.48.46-.73 1.08a3 3 0 0 0-.25 1.28v24.58a3.35 3.35 0 0 0 3.35 3.36h13.22q-.24 1.6-.98 3.05h-3.43a6.5 6.5 0 0 0-4.32 1.57 5.5 5.5 0 0 0-1.89 4.2q0 .26.19.45.18.18.45.19h32.23q.27 0 .46-.2a.6.6 0 0 0 .18-.45 5.4 5.4 0 0 0-1.89-4.2 6.5 6.5 0 0 0-4.31-1.56h-3.43q-.75-1.44-1-3.06h13.24a3.35 3.35 0 0 0 3.35-3.35V20.47a3.3 3.3 0 0 0-.98-2.36 3.3 3.3 0 0 0-2.37-.98m-8.81 35.63c2.2 0 4.53 1.34 4.87 3.82l-30.85.01c.33-2.22 2.32-3.83 4.88-3.83ZM31.8 51.47q.65-1.47.87-3.06h9.66q.21 1.58.86 3.06Zm27.12-6.42q0 .41-.16.79a2 2 0 0 1-1.9 1.28H18.14a2 2 0 0 1-1.46-.6 2 2 0 0 1-.6-1.47V20.47a2 2 0 0 1 .6-1.45 2 2 0 0 1 1.46-.61h38.72a2 2 0 0 1 1.46.6 2 2 0 0 1 .6 1.46ZM52.3 21.5H22.7a2.6 2.6 0 0 0-2.38 1.59q-.2.47-.2.98v17.4a2.6 2.6 0 0 0 2.58 2.57h29.6q.51 0 .99-.2a2.5 2.5 0 0 0 1.38-1.38q.2-.48.2-.99v-17.4a2.55 2.55 0 0 0-2.57-2.57m1.28 19.97q0 .27-.1.5a1.3 1.3 0 0 1-.69.68q-.23.1-.49.1H22.7q-.26 0-.5-.1a1.3 1.3 0 0 1-.7-.7q-.08-.21-.08-.48v-17.4q0-.25.1-.49a1.2 1.2 0 0 1 .68-.7q.24-.09.5-.09h29.6a1.2 1.2 0 0 1 .9.38 1.3 1.3 0 0 1 .38.9Zm0 0"/></g></svg>
